X:15
T:Blackberry Blossom
M:4/4
L:1/8
B:The Fiddler's Fakebook, p.47
Z:abc-transcription Josh Larios <hades@elsewhere.org>, 2014.01.13
K:G
"G"gab(g "D"fg)a(f | "C"ef)g(e "G"dB)A(G | "C"EF)G(E "G"DE)GA | "A"BdBG "D"Ade(f |
"G"ga)b(g "D"fg)a(f | "C"ef)g(e "G"dB)AG | "C"EFGE "G"DEGA |1 "D"BGA(F"G"G4 :|2 "D"BGA(F"G"G2)GF ||
|:"Em"[E2B2] e(B dB)e(d | [E2B2]) e(B "D"dB)AG | "Em"[E2B2] e(B dB)e(f | "G"ga)bg "D"aged |
"Em"[E2B2] e(B dB)e(d | [E2B2]) e(B "D"cB)AF | "Em"[E2B2] e(B dB)eB |1 "D"BGA(F "G"G2) GF :|2 "D"BGA(F "G"G4) |]

